X: 351
T: Bir Beyâtî Bûselik
C: Ahmet Avni Konuk
O: Turkey
F: http://compmusic.upf.edu/node/140
N: beyatibuselik--kupe--agiraksak--bir--ahmet_avni_konuk
N: makam= beyatibuselik
N: form= kupe
N: usul= agiraksak = 9/4
M: 9/4
L: 1/16
K: C _2/4B   
Q: 1/4=60
%%MIDI tuningsystem comma53
c4 d4 z2A4B2 c2d2 c2B2 c4 d4 z4  | \
w:  Ah  *  bir  Be yâ *  *  *  tî   | 
e2f2 e2d2 c4 c2e2 dcde d2c2 B4 c4 B2A2  | 
w:  Bû *  *  *  se *  *  lik  *  *  *  *  *  ol  | 
A8 z2A4f2 f8 f2e2 f2g2 a2g2  | g2f2 f2e2 e2f2 e2d2 d2ef e2d2 c4 d8  | 
w:  *  du  ku lû be   |  neş *  *  *  e *  *  *  bâr    | 
z8 z2A4f2 f8 a4 g4 a4  | g4 f2g2 f4 e2f2 e4 d2e2 g3^3/4f _2/4e2d2 c2B2  | 
w:  Duy sa  ız hâr_  |  ı  *  *  me *  *  sâr  *  *  ey  | 
c8 z2c4c2 d4 e4 e2f2 e2d2 c3=B  | \
w:  *  ler di  bî *  çâ  | 
A4 A2=B2 c2d2 c2B2 B2A2 A2^G2 A8 z4  | 
w:  re  *  *  *  *  he *  zâr    | 
|


